X:1
T: Molly Bawn's Reel
C:
R:Reel
Q: 232
K:Am
M:4/4
L:1/8
A2|Ad d^c d2 =cB|AF cF dF cD|Ad d^c d2 de|fd cA AG G2|
Ad d^c d2 =cB|AF cF dF cD|Ad d^c d2 de|fd cA AG G2|
|:g2 dg g2 ag|fd de f2 fe|g2 g^f g2 ag|^fd cA AG G2|
gd dg g2 ag|fd de f2 fg|ab ag fg ag|fd cA AG G2:|
Ad d^c d2 =cB|AF cF dF cD|Ad d^c d2 de|fd cA AG G2|
Ad d^c d2 =cB|AF cF dF cD|Ad d^c d2 de|fd cA AG G2||
